static/assets/images/exchanges/thena.svg

<svg width="289" height="256" viewBox="0 0 289 256" fill="none" xmlns="http://www.w3.org/2000/svg">
<path d="M288.416 0V31.8439H256.74C239.026 31.8439 224.647 46.413 224.647 63.8959V224.156H192.138V31.6358H160.046V256H128.162V31.8439H96.2775V223.948H63.9766V63.8959C63.9766 46.2049 49.5975 31.8439 31.8841 31.8439H0V0H288.416Z" fill="#F565FA"/>
</svg>

<svg xmlns="http://www.w3.org/2000/svg" fill="none" viewBox="0 0 289 256"><path fill="#F565FA" d="M288.416 0v31.844H256.74c-17.714 0-32.093 14.569-32.093 32.052v160.26h-32.509V31.636h-32.092V256h-31.884V31.844H96.277v192.104h-32.3V63.896c0-17.691-14.38-32.052-32.093-32.052H0V0z"/></svg>
